Sources/FrostedUI/Resources/Icons.xcassets/fileLinesSize16.imageset/file-lines-size-16.svg

<svg
  width="16"
  height="16"
  viewBox="0 0 16 16"
  fill="none"
  xmlns="http://www.w3.org/2000/svg"
  data-fui-icon="true"
>
  <path
    d="M8.89055 2.22385L9.42089 1.69353L9.42087 1.69351L8.89055 2.22385ZM12.4428 5.77613L11.9125 6.30646L11.9125 6.30648L12.4428 5.77613ZM5.68752 10.5C5.27331 10.5 4.93752 10.8358 4.93752 11.25C4.93752 11.6642 5.27331 12 5.68752 12V10.5ZM10.3125 12C10.7267 12 11.0625 11.6642 11.0625 11.25C11.0625 10.8358 10.7267 10.5 10.3125 10.5V12ZM5.68752 7.76041C5.27331 7.76041 4.93752 8.0962 4.93752 8.51041C4.93752 8.92462 5.27331 9.26041 5.68752 9.26041V7.76041ZM8.00002 9.26041C8.41423 9.26041 8.75002 8.92462 8.75002 8.51041C8.75002 8.0962 8.41423 7.76041 8.00002 7.76041V9.26041ZM7.75002 2.16666V4.83333H9.25002V2.16666H7.75002ZM7.75002 4.83333C7.75002 5.98391 8.68273 6.91666 9.83335 6.91666V5.41666C9.51117 5.41666 9.25002 5.1555 9.25002 4.83333H7.75002ZM9.83335 6.91666H12.5V5.41666H9.83335V6.91666ZM4.50002 2.58333H7.94775V1.08333H4.50002V2.58333ZM7.94775 2.58333C8.10243 2.58333 8.25081 2.64478 8.36024 2.7542L9.42087 1.69351C9.03017 1.30283 8.50028 1.08333 7.94775 1.08333V2.58333ZM8.36022 2.75418L11.9125 6.30646L12.9732 5.24581L9.42089 1.69353L8.36022 2.75418ZM11.9125 6.30648C12.0219 6.41587 12.0834 6.56423 12.0834 6.71893H13.5834C13.5834 6.16641 13.3639 5.6365 12.9731 5.24579L11.9125 6.30648ZM12.0834 6.71893V12.8333H13.5834V6.71893H12.0834ZM12.0834 12.8333C12.0834 13.1555 11.8222 13.4167 11.5 13.4167V14.9167C12.6506 14.9167 13.5834 13.9839 13.5834 12.8333H12.0834ZM11.5 13.4167H4.50002V14.9167H11.5V13.4167ZM4.50002 13.4167C4.17785 13.4167 3.91669 13.1555 3.91669 12.8333H2.41669C2.41669 13.9839 3.34943 14.9167 4.50002 14.9167V13.4167ZM3.91669 12.8333V3.16666H2.41669V12.8333H3.91669ZM3.91669 3.16666C3.91669 2.8445 4.17785 2.58333 4.50002 2.58333V1.08333C3.34943 1.08333 2.41669 2.01607 2.41669 3.16666H3.91669ZM5.68752 12H10.3125V10.5H5.68752V12ZM5.68752 9.26041H8.00002V7.76041H5.68752V9.26041Z"
    fill="currentColor"
  />
</svg>

<svg xmlns="http://www.w3.org/2000/svg" width="16" height="16" fill="none" data-fui-icon="true" viewBox="0 0 16 16"><path fill="currentColor" d="m8.89 2.224.53-.53zm3.553 3.552-.53.53zM5.688 10.5a.75.75 0 0 0 0 1.5zm4.625 1.5a.75.75 0 0 0 0-1.5zM5.688 7.76a.75.75 0 0 0 0 1.5zM8 9.26a.75.75 0 0 0 0-1.5zm-.25-7.093v2.666h1.5V2.167zm0 2.666c0 1.15.933 2.084 2.083 2.084v-1.5a.583.583 0 0 1-.583-.584zm2.083 2.084H12.5v-1.5H9.833zM4.5 2.583h3.448v-1.5H4.5zm3.448 0c.154 0 .303.062.412.171l1.06-1.06c-.39-.391-.92-.61-1.472-.61zm.412.171 3.553 3.552 1.06-1.06-3.552-3.552zm3.553 3.552c.109.11.17.258.17.413h1.5c0-.553-.22-1.083-.61-1.473zm.17.413v6.114h1.5V6.72zm0 6.114a.583.583 0 0 1-.583.584v1.5c1.15 0 2.083-.933 2.083-2.084zm-.583.584h-7v1.5h7zm-7 0a.583.583 0 0 1-.583-.584h-1.5c0 1.15.932 2.084 2.083 2.084zm-.583-.584V3.167h-1.5v9.666zm0-9.666c0-.322.26-.584.583-.584v-1.5c-1.15 0-2.083.933-2.083 2.084zM5.687 12h4.626v-1.5H5.688zm0-2.74H8v-1.5H5.688z"/></svg>
